;FLAVOR:UltiGCode
;TIME:2451
;MATERIAL:2802
;MATERIAL2:0
;NOZZLE_DIAMETER:0.4
;Generated with Cura_SteamEngine 3.4.1
M82 ;absolute extrusion mode

G92 E0
G10
;LAYER_COUNT:88
;LAYER:0
M107
G0 F3600 X35.95 Y37.945 Z0.3
;TYPE:SKIRT
G11
G1 F1800 X36.34 Y37.576 E0.02148
G1 X36.883 Y37.211 E0.04765
G1 X41.633 Y34.609 E0.26429
G1 X47.26 Y31.354 E0.52431
G1 X47.743 Y31.121 E0.54576
G1 X48.255 Y30.962 E0.56721
G1 X48.805 Y30.879 E0.58946
G1 X50.007 Y30.793 E0.63766
G1 X50.543 Y30.795 E0.6591
G1 X51.073 Y30.876 E0.68055
G1 X51.502 Y31.004 E0.69845
G1 X56.342 Y32.777 E0.90463
G1 X60.819 Y34.165 E1.09212
G1 X80.605 Y39.726 E1.91423
G1 X80.904 Y39.825 E1.92683
G1 X81.803 Y40.165 E1.96527
G1 X82.515 Y40.529 E1.99726
G1 X87.972 Y44.137 E2.25893
G1 X88.397 Y44.465 E2.28041
G1 X88.767 Y44.853 E2.30185
G1 X89.076 Y45.291 E2.32329
G1 X89.278 Y45.68 E2.34083
G1 X89.7 Y46.631 E2.38244
G1 X89.88 Y47.136 E2.40389
G1 X89.983 Y47.662 E2.42533
G1 X90.009 Y48.08 E2.44208
G1 X90.045 Y59.989 E2.91844
G1 X90.007 Y60.524 E2.9399
G1 X89.905 Y60.993 E2.9591
G1 X89.804 Y61.345 E2.97374
G1 X89.618 Y61.848 E2.9952
G1 X89.461 Y62.153 E3.00892
G1 X88.964 Y63.013 E3.04865
G1 X88.662 Y63.456 E3.07009
G1 X88.151 Y63.978 E3.09931
G1 X86.282 Y65.535 E3.19662
G1 X82.193 Y69.237 E3.41725
G1 X70.078 Y81.115 E4.09591
G1 X70.028 Y81.163 E4.09868
G1 X65.398 Y85.531 E4.35329
G1 X64.982 Y85.869 E4.37473
G1 X64.422 Y86.187 E4.40049
G1 X57.831 Y89.193 E4.69026
G1 X57.328 Y89.379 E4.71171
G1 X56.803 Y89.488 E4.73315
G1 X56.267 Y89.517 E4.75463
G1 X55.527 Y89.426 E4.78445
G1 X55.068 Y89.32 E4.80329
G1 X54.556 Y89.16 E4.82475
G1 X54.055 Y88.916 E4.84704
G1 X48.785 Y85.821 E5.0915
G1 X43.529 Y82.901 E5.33201
G1 X43.081 Y82.606 E5.35347
G1 X42.681 Y82.249 E5.37491
G1 X42.34 Y81.835 E5.39637
G1 X42.063 Y81.376 E5.41781
G1 X41.817 Y80.749 E5.44475
G1 X41.461 Y79.511 E5.49628
G1 X41.374 Y79.134 E5.51175
G1 X40.998 Y76.975 E5.59941
G1 X39.579 Y70.542 E5.86292
G1 X34.296 Y49.795 E6.71928
G1 X34.231 Y49.482 E6.73207
G1 X34.084 Y48.573 E6.7689
G1 X34.044 Y47.786 E6.80042
G1 X34.413 Y41.54 E7.0507
G1 X34.485 Y41.008 E7.07217
G1 X34.566 Y40.695 E7.08511
G1 X34.899 Y39.611 E7.13047
G1 X35.094 Y39.111 E7.15193
G1 X35.361 Y38.646 E7.17338
G1 X35.677 Y38.245 E7.1938
G1 X35.95 Y37.945 E7.21003
G0 F3600 X36.246 Y38.214
G1 F1800 X36.615 Y37.868 E7.23026
G1 X37.075 Y37.562 E7.25236
G1 X41.813 Y34.966 E7.46846
G1 X47.46 Y31.7 E7.7294
G1 X47.916 Y31.482 E7.74962
G1 X48.401 Y31.339 E7.76984
G1 X48.834 Y31.278 E7.78734
G1 X50.036 Y31.192 E7.83554
G1 X50.541 Y31.196 E7.85574
G1 X51.04 Y31.279 E7.87597
G1 X51.364 Y31.379 E7.88954
G1 X56.224 Y33.159 E8.09656
G1 X60.697 Y34.546 E8.28389
G1 X80.497 Y40.111 E9.10658
G1 X80.763 Y40.199 E9.11778
G1 X81.662 Y40.539 E9.15623
G1 X82.295 Y40.863 E9.18467
G1 X87.752 Y44.471 E9.44635
G1 X88.15 Y44.782 E9.46655
G1 X88.495 Y45.152 E9.48679
G1 X88.776 Y45.572 E9.507
G1 X88.912 Y45.842 E9.5191
G1 X89.334 Y46.793 E9.56071
G1 X89.502 Y47.27 E9.58094
G1 X89.593 Y47.767 E9.60115
G1 X89.609 Y48.081 E9.61373
G1 X89.645 Y59.99 E10.09009
G1 X89.607 Y60.494 E10.11031
G1 X89.521 Y60.883 E10.12624
G1 X89.42 Y61.235 E10.14089
G1 X89.242 Y61.708 E10.16111
G1 X89.115 Y61.953 E10.17214
G1 X88.618 Y62.813 E10.21188
G1 X88.331 Y63.23 E10.23213
G1 X87.895 Y63.671 E10.25693
G1 X86.014 Y65.238 E10.35486
G1 X81.915 Y68.949 E10.57603
G1 X69.798 Y80.829 E11.2548
G1 X69.754 Y80.872 E11.25726
G1 X65.124 Y85.24 E11.51187
G1 X64.73 Y85.556 E11.53208
G1 X64.256 Y85.823 E11.55384
G1 X57.665 Y88.829 E11.8436
G1 X57.19 Y89.002 E11.86382
G1 X56.693 Y89.098 E11.88407
G1 X56.188 Y89.115 E11.90428
G1 X55.617 Y89.036 E11.92734
G1 X55.158 Y88.93 E11.94618
G1 X54.676 Y88.778 E11.9664
G1 X54.257 Y88.571 E11.98509
G1 X48.97 Y85.465 E12.23037
G1 X43.723 Y82.551 E12.47044
G1 X43.302 Y82.272 E12.49064
G1 X42.93 Y81.929 E12.51088
G1 X42.617 Y81.532 E12.5311
G1 X42.37 Y81.091 E12.55132
G1 X42.202 Y80.638 E12.57065
G1 X41.846 Y79.4 E12.62218
G1 X41.768 Y79.065 E12.63593
G1 X41.393 Y76.911 E12.72339
G1 X39.962 Y70.425 E12.98907
G1 X34.684 Y49.697 E13.84465
G1 X34.626 Y49.418 E13.85604
G1 X34.479 Y48.509 E13.89288
G1 X34.444 Y47.809 E13.92091
G1 X34.813 Y41.563 E14.17119
G1 X34.882 Y41.063 E14.19138
G1 X34.948 Y40.812 E14.20176
G1 X35.281 Y39.728 E14.24712
G1 X35.467 Y39.258 E14.26734
G1 X35.725 Y38.823 E14.28757
G1 X35.973 Y38.514 E14.30342
G1 X36.246 Y38.214 E14.31964
G0 F3600 X38.543 Y40.708
;TYPE:SUPPORT
G1 F1800 X38.757 Y40.494 E14.33175
G1 X40.307 Y39.606 E14.4032
G1 X40.711 Y39.51 E14.41981
G1 X41.521 Y40.007 E14.45782
G1 X41.433 Y40.604 E14.48196
G1 X41.584 Y41.071 E14.50159
G1 X43.294 Y42.843 E14.60009
G1 X43.824 Y42.919 E14.62151
G1 X48.106 Y40.446 E14.8193
G1 X48.359 Y40.009 E14.8395
G1 X48.359 Y36.872 E14.96498
G1 X47.96 Y36.472 E14.98758
G1 X47.223 Y36.47 E15.01706
G1 X47.197 Y35.843 E15.04216
G1 X47.436 Y35.599 E15.05583
G1 X48.973 Y34.695 E15.12715
G1 X49.429 Y34.574 E15.14602
G1 X50.203 Y34.574 E15.17698
G1 X54.238 Y37.402 E15.37408
G1 X39.483 Y45.921 E16.05558
G1 X38.908 Y46.297 E16.08307
G1 X38.507 Y45.988 E16.10331
G1 X39.856 Y45.209 E16.16563
G1 X40.059 Y44.713 E16.18706
G1 X39.371 Y42.259 E16.28901
G1 X39.029 Y41.899 E16.30887
G1 X38.291 Y41.653 E16.33999
G1 X38.543 Y41.24 E16.35934
G1 X38.543 Y40.708 E16.38062
G0 F3600 X39.958 Y39.99
G1 F1800 X41.188 Y39.99 E16.42982
G0 F3600 X39.99 Y39.971
G1 F1800 X39.99 Y43.876 E16.58602
G0 F3600 X39.648 Y42.656
G1 F1800 X42.892 Y42.656 E16.71578
G0 F3600 X42.656 Y42.412
G1 F1800 X42.656 Y43.905 E16.7755
G0 F3600 X44.599 Y42.656
G1 F1800 X44.818 Y42.656 E16.78426
G0 F3600 X45.322 Y42.366
G1 F1800 X45.322 Y42.238 E16.78938
G0 F3600 X47.988 Y40.826
G1 F1800 X47.988 Y40.697 E16.79454
G0 F3600 X48.519 Y39.99
G1 F1800 X49.435 Y39.99 E16.83118
G0 F3600 X50.654 Y39.287
G1 F1800 X50.654 Y35.086 E16.99922
G0 F3600 X47.988 Y35.458
G1 F1800 X47.988 Y36.311 E17.03334
G0 F3600 X48.519 Y37.324
G1 F1800 X53.848 Y37.324 E17.2465
G0 F3600 X53.32 Y36.955
G1 F1800 X53.32 Y37.748 E17.27822
G0 F3600 X40.201 Y45.322
G1 F1800 X39.98 Y45.322 E17.28706
G0 F3600 X39.99 Y45.302
G1 F1800 X39.99 Y45.445 E17.29278
G10
G0 F3600 X38.748 Y47.69
G0 X38.402 Y48.181
G11
G1 F1800 X38.503 Y49.205 E17.33394
G1 X38.571 Y49.636 E17.35139
G1 X39.752 Y54.019 E17.53296
G1 X39.816 Y54.408 E17.54873
G1 X41.314 Y60.005 E17.78049
G1 X41.363 Y60.394 E17.79618
G1 X43.779 Y69.477 E18.17213
G1 X43.822 Y69.887 E18.18862
G1 X44.373 Y71.989 E18.27554
G1 X44.515 Y72.462 E18.29529
G1 X44.637 Y72.741 E18.30747
G1 X45.171 Y73.625 E18.34879
G1 X60.267 Y82.341 E19.04605
G1 X60.419 Y82.413 E19.05277
G1 X60.843 Y82.595 E19.07123
G1 X60.769 Y83.124 E19.0926
G1 X59.369 Y82.316 E19.15725
G1 X58.839 Y82.387 E19.17864
G1 X57.037 Y84.222 E19.28152
G1 X56.87 Y84.677 E19.3009
G1 X56.917 Y85.311 E19.32633
G1 X56.283 Y85.722 E19.35656
G1 X55.904 Y85.62 E19.37226
G1 X54.391 Y84.742 E19.44223
G1 X54.177 Y84.609 E19.45231
G1 X54.177 Y84.224 E19.46771
G1 X53.923 Y83.786 E19.48796
G1 X53.667 Y83.638 E19.49979
G1 X53.728 Y82.761 E19.53495
G1 X54.412 Y82.47 E19.56468
G1 X54.697 Y82.038 E19.58539
G1 X54.697 Y79.914 E19.67035
G1 X54.444 Y79.477 E19.69054
G1 X50.767 Y77.349 E19.86048
G1 X50.236 Y77.423 E19.88193
G1 X48.509 Y79.198 E19.98099
G1 X48.355 Y79.664 E20.00062
G1 X48.463 Y80.479 E20.0335
G1 X47.721 Y80.643 E20.0639
G1 X47.611 Y80.753 E20.07012
G1 X47.252 Y80.671 E20.08485
G1 X46.474 Y80.181 E20.12163
G1 X46.093 Y80.005 E20.13842
G1 X45.469 Y79.646 E20.16721
G1 X45.469 Y79.02 E20.19225
G1 X45.204 Y78.602 E20.21205
G1 X46.262 Y78.167 E20.25781
G1 X46.552 Y77.735 E20.27862
G1 X46.552 Y75.212 E20.37954
G1 X46.3 Y74.775 E20.39972
G1 X44.441 Y73.698 E20.48566
G1 X44.422 Y73.625 E20.48867
G1 X44.259 Y73.265 E20.50448
G1 X43.424 Y69.977 E20.64017
G1 X43.268 Y69.618 E20.65583
G1 X40.972 Y60.499 E21.03198
G1 X40.825 Y60.115 E21.04842
G1 X39.415 Y54.489 E21.28042
G1 X39.282 Y54.119 E21.29615
G1 X37.97 Y48.859 E21.513
G1 X37.858 Y48.174 E21.54076
G1 X38.402 Y48.181 E21.56252
G0 F3600 X38.583 Y50.654
G1 F1800 X38.68 Y50.654 E21.5664
G0 F3600 X39.247 Y53.32
G1 F1800 X39.398 Y53.32 E21.57244
G0 F3600 X39.99 Y55.677
G1 F1800 X39.99 Y56.123 E21.59028
G0 F3600 X39.955 Y55.986
G1 F1800 X40.073 Y55.986 E21.595
G0 F3600 X40.623 Y58.652
G1 F1800 X40.787 Y58.652 E21.60156
G0 F3600 X41.341 Y61.318
G1 F1800 X41.443 Y61.318 E21.60564
G0 F3600 X42.013 Y63.984
G1 F1800 X42.152 Y63.984 E21.6112
G0 F3600 X42.656 Y65.879
G1 F1800 X42.656 Y66.53 E21.63724
G0 F3600 X42.684 Y66.65
G1 F1800 X42.861 Y66.65 E21.64432
G0 F3600 X43.356 Y69.316
G1 F1800 X43.57 Y69.316 E21.65288
G0 F3600 X44.097 Y71.982
G1 F1800 X44.205 Y71.982 E21.6572
G0 F3600 X45.322 Y73.897
G1 F1800 X45.322 Y74.023 E21.66224
G0 F3600 X46.398 Y74.648
G1 F1800 X46.624 Y74.648 E21.67128
G0 F3600 X47.988 Y75.436
G1 F1800 X47.988 Y80.42 E21.87064
G0 F3600 X48.235 Y79.98
G1 F1800 X46.42 Y79.98 E21.94324
G0 F3600 X46.711 Y77.314
G1 F1800 X50.117 Y77.314 E22.07948
G0 F3600 X50.654 Y77.204
G1 F1800 X50.654 Y76.975 E22.08864
G0 F3600 X51.025 Y77.314
G1 F1800 X51.241 Y77.314 E22.09728
G0 F3600 X53.32 Y78.515
G1 F1800 X53.32 Y78.642 E22.10236
G0 F3600 X54.856 Y79.98
G1 F1800 X55.858 Y79.98 E22.14244
G0 F3600 X55.986 Y80.054
G1 F1800 X55.986 Y85.476 E22.35932
G0 F3600 X55.691 Y85.312
G1 F1800 X56.62 Y85.312 E22.39648
G0 F3600 X58.359 Y82.646
G1 F1800 X54.405 Y82.646 E22.55464
G0 F3600 X58.652 Y82.35
G1 F1800 X58.652 Y81.593 E22.58492
G0 F3600 X60.258 Y82.646
G1 F1800 X60.558 Y82.646 E22.59692
G0 F3600 X74.345 Y42.368
G1 F1800 X73.985 Y42.238 E22.61223
G1 X68.451 Y40.752 E22.84143
G1 X68.105 Y40.609 E22.85641
G1 X58.777 Y38.086 E23.24294
G1 X58.417 Y37.917 E23.25884
G1 X56.212 Y37.318 E23.35024
G1 X55.763 Y37.228 E23.36856
G1 X55.518 Y37.21 E23.37838
G1 X55.014 Y37.21 E23.39854
G1 X55.074 Y36.603 E23.42294
G1 X55.322 Y36.625 E23.4329
G1 X58.51 Y37.526 E23.56542
G1 X58.914 Y37.575 E23.5817
G1 X68.179 Y40.206 E23.96695
G1 X68.581 Y40.269 E23.98322
G1 X74.088 Y41.842 E24.21231
G1 X74.468 Y41.911 E24.22776
G1 X79.571 Y43.373 E24.44009
G1 X80.239 Y43.625 E24.46865
G1 X79.957 Y44.095 E24.49058
G1 X79.014 Y43.663 E24.53207
G1 X78.823 Y43.586 E24.5403
G1 X78.501 Y43.476 E24.55392
G1 X74.345 Y42.368 E24.72596
G0 F3600 X74.648 Y42.283
G1 F1800 X74.648 Y42.129 E24.73212
G0 F3600 X76.048 Y42.656
G1 F1800 X76.493 Y42.656 E24.74992
G0 F3600 X77.314 Y42.893
G1 F1800 X77.314 Y42.994 E24.75396
G0 F3600 X71.982 Y41.534
G1 F1800 X71.982 Y41.408 E24.759
G0 F3600 X69.316 Y40.819
G1 F1800 X69.316 Y40.646 E24.76592
G0 F3600 X66.832 Y39.99
G1 F1800 X66.432 Y39.99 E24.78192
G0 F3600 X66.65 Y39.94
G1 F1800 X66.65 Y40.049 E24.78628
G0 F3600 X63.984 Y39.328
G1 F1800 X63.984 Y39.182 E24.79212
G0 F3600 X61.318 Y38.608
G1 F1800 X61.318 Y38.425 E24.79944
G0 F3600 X58.652 Y37.851
G1 F1800 X58.652 Y37.705 E24.80528
G0 F3600 X57.208 Y37.324
G1 F1800 X56.843 Y37.324 E24.81988
G0 F3600 X55.986 Y37.109
G1 F1800 X55.986 Y36.979 E24.82508
G0 F3600 X81.337 Y45.462
G1 F1800 X81.802 Y45.281 E24.84504
G1 X81.802 Y45.443 E24.85152
G1 X82.966 Y47.77 E24.9556
G1 X83.528 Y47.915 E24.97881
G1 X85.044 Y46.88 E25.05224
G1 X85.846 Y47.282 E25.08812
G1 X86.16 Y47.909 E25.11617
G1 X86.253 Y48.252 E25.13039
G1 X86.254 Y50.01 E25.20071
G1 X86.192 Y50.256 E25.21085
G1 X85.654 Y50.795 E25.24132
G1 X85.654 Y51.096 E25.25336
G1 X85.016 Y51.408 E25.28176
G1 X84.478 Y51.003 E25.3087
G1 X83.968 Y50.956 E25.32919
G1 X82.071 Y51.902 E25.41398
G1 X81.801 Y52.339 E25.43453
G1 X81.804 Y55.957 E25.57925
G1 X82.068 Y56.393 E25.59963
G1 X83.892 Y57.352 E25.68206
G1 X84.401 Y57.321 E25.70246
G1 X85.043 Y56.88 E25.73362
G1 X85.654 Y57.186 E25.76095
G1 X85.654 Y57.382 E25.76879
G1 X85.922 Y57.817 E25.78923
G1 X86.168 Y57.941 E25.80025
G1 X86.254 Y58.256 E25.81331
G1 X86.255 Y59.983 E25.88239
G1 X86.183 Y60.225 E25.89249
G1 X85.897 Y60.402 E25.90594
G1 X85.654 Y60.841 E25.92601
G1 X85.654 Y61.094 E25.93613
G1 X81.373 Y63.19 E26.12679
G1 X81.373 Y46.138 E26.80887
G1 X81.337 Y45.462 E26.83595
G0 F3600 X82.646 Y47.488
G1 F1800 X82.646 Y51.437 E26.99391
G0 F3600 X81.533 Y50.654
G1 F1800 X85.566 Y50.654 E27.15523
G0 F3600 X85.312 Y51.086
G1 F1800 X85.312 Y47.194 E27.31091
G0 F3600 X86.017 Y47.988
G1 F1800 X83.702 Y47.988 E27.40351
G0 F3600 X83.176 Y47.988
G1 F1800 X81.533 Y47.988 E27.46923
G0 F3600 X81.533 Y53.32
G1 F1800 X81.642 Y53.32 E27.47359
G0 F3600 X81.644 Y55.986
G1 F1800 X81.533 Y55.986 E27.47803
G0 F3600 X82.646 Y56.878
G1 F1800 X82.646 Y62.389 E27.69847
G0 F3600 X81.533 Y61.318
G1 F1800 X84.83 Y61.318 E27.83035
G0 F3600 X85.312 Y61.084
G1 F1800 X85.312 Y57.194 E27.98595
G0 F3600 X86.095 Y58.652
G1 F1800 X81.533 Y58.652 E28.16843
G0 F3600 X81.176 Y63.944
G1 F1800 X81.663 Y64.305 E28.19268
G1 X81.516 Y64.506 E28.20264
G1 X79.028 Y66.929 E28.34156
G1 X78.791 Y67.247 E28.35742
G1 X72.046 Y73.795 E28.73345
G1 X71.796 Y74.109 E28.7495
G1 X67.97 Y77.811 E28.96245
G1 X67.712 Y78.118 E28.97849
G1 X63.522 Y82.158 E29.21131
G1 X62.985 Y82.596 E29.23903
G1 X62.719 Y82.119 E29.26088
G1 X63.581 Y81.509 E29.30312
G1 X63.894 Y81.252 E29.31932
G1 X67.371 Y77.768 E29.5162
G1 X67.679 Y77.519 E29.53205
G1 X71.423 Y73.778 E29.74375
G1 X71.735 Y73.533 E29.75962
G1 X78.428 Y66.865 E30.13753
G1 X78.751 Y66.636 E30.15337
G1 X80.453 Y64.945 E30.24934
G1 X80.697 Y64.681 E30.26372
G1 X80.871 Y64.439 E30.27564
G1 X81.176 Y63.944 E30.29889
G0 F3600 X79.98 Y65.641
G1 F1800 X79.98 Y65.78 E30.30445
G0 F3600 X79.085 Y66.65
G1 F1800 X78.965 Y66.65 E30.30925
G0 F3600 X77.314 Y68.2
G1 F1800 X77.314 Y68.458 E30.31957
G0 F3600 X76.429 Y69.316
G1 F1800 X76.195 Y69.316 E30.32893
G0 F3600 X74.648 Y70.857
G1 F1800 X74.648 Y71.047 E30.33653
G0 F3600 X73.684 Y71.982
G1 F1800 X73.52 Y71.982 E30.34309
G0 F3600 X71.982 Y73.513
G1 F1800 X71.982 Y73.635 E30.34797
G0 F3600 X71.009 Y74.648
G1 F1800 X70.778 Y74.648 E30.35721
G0 F3600 X69.316 Y76.109
G1 F1800 X69.316 Y76.287 E30.36433
G0 F3600 X68.254 Y77.314
G1 F1800 X68.112 Y77.314 E30.37001
G0 F3600 X66.65 Y78.717
G1 F1800 X66.65 Y78.92 E30.37813
G0 F3600 X65.549 Y79.98
G1 F1800 X65.39 Y79.98 E30.38449
G0 F3600 X63.984 Y81.409
G1 F1800 X63.984 Y81.49 E30.38773
G10
G0 F3600 X38.812 Y47.251
G0 X37.982 Y47.013
;TYPE:WALL-OUTER
G11
G1 F1800 X37.964 Y47.075 E30.39032
G1 X37.946 Y47.004 E30.3907
G1 X37.991 Y46.978 E30.39229
G1 X37.982 Y47.013
G0 F3600 X37.964 Y47.075
G0 X37.946 Y47.004
G0 X37.991 Y46.978
G0 X37.988 Y46.989
G10
G0 X38.812 Y47.251
G0 X61.721 Y82.23
G0 X61.931 Y83.105
G11
G1 F1800 X61.886 Y83.079 E30.39437
G1 X61.922 Y83.07
G1 X61.982 Y83.055 E30.3964
G1 X61.931 Y83.105 E30.3968
G0 F3600 X61.886 Y83.079
G0 X61.922 Y83.07
G0 X61.982 Y83.055
G0 X61.946 Y83.09
G10
G0 X61.726 Y82.229
G0 X80.547 Y44.9
G0 X81.203 Y44.284
G11
G1 F1800 X81.202 Y44.334 E30.3988
G1 X81.178 Y44.309
G1 X81.137 Y44.266 E30.40074
G1 X81.203 Y44.284 E30.40111
G0 F3600 X81.202 Y44.334
G0 X81.178 Y44.309
G0 X81.137 Y44.266
G0 X81.192 Y44.281
G10
G0 X81.184 Y44.288
G0 X81.154 Y44.276
G0 X80.395 Y43.822
G0 X47.988 Y35.27
;TIME_ELAPSED:37.532020
;LAYER:1
M106 S255
G0 F5400 X47.988 Y35.27 Z0.4
;TYPE:SUPPORT
G11
G1 F2700 X47.918 Y35.31 E30.40433
G1 X47.602 Y35.489 E30.41886
G1 X47.469 Y35.565 E30.42499
G1 X47.197 Y35.842 E30.44051
G1 X47.223 Y36.469 E30.46562
G1 X47.96 Y36.471 E30.4951
G1 X47.988 Y36.499 E30.49668
G1 X48.359 Y36.871 E30.5177
G1 X48.359 Y40.009 E30.64322
G1 X48.106 Y40.446 E30.66341
G1 X47.988 Y40.514 E30.66886
G1 X47.988 Y41.011 E30.68874
G1 X45.322 Y42.551 E30.81189
G1 X45.322 Y42.053 E30.83181
G1 X43.824 Y42.919 E30.90103
G1 X43.294 Y42.843 E30.92244
G1 X42.656 Y42.183 E30.95916
G1 X42.656 Y44.09 E31.03544
G1 X39.99 Y45.63 E31.15859
G1 X39.99 Y44.889 E31.18823
G1 X39.861 Y45.206 E31.20192
G1 X38.293 Y46.112 E31.27436
G1 X38.404 Y46.048 E31.27949
G1 X38.759 Y46.393 E31.29929
G1 X39.474 Y45.927 E31.33343
G1 X39.99 Y45.63 E31.35724
G0 F5400 X39.99 Y44.889
G1 F2700 X40.063 Y44.71 E31.36497
G1 X39.99 Y44.452 E31.3757
G1 X39.99 Y39.787 E31.5623
G1 X38.757 Y40.494 E31.61915
G1 X38.543 Y40.708 E31.63126
G1 X38.543 Y41.24 E31.65254
G1 X38.291 Y41.655 E31.67196
G1 X39.031 Y41.91 E31.70327
G1 X39.371 Y42.27 E31.72307
G1 X39.99 Y44.452 E31.8138
G0 F5400 X47.988 Y35.27
